packages/components/src/images/icons/trezor_logo.svg

<svg fill="#000000" viewBox="0 0 177 256" version="1.1" xmlns="http://www.w3.org/2000/svg" xmlns:xlink="http://www.w3.org/1999/xlink">
    <path d="M150.660287,59.4066985 C150.660287,26.9473684 122.488038,0 88.1913876,0 C53.894737,0 25.722488,26.9473684 25.722488,59.4066985 L25.722488,78.3923445 L1.42108547e-14,78.3923445 L1.42108547e-14,214.966507 L88.1913876,256 L176.382775,214.966507 L176.382775,79.0047848 L150.660287,79.0047848 L150.660287,59.4066985 Z M57.5693779,59.4066985 C57.5693779,44.0956938 71.0430623,31.8468899 88.1913876,31.8468899 C105.339713,31.8468899 118.813397,44.0956938 118.813397,59.4066985 L118.813397,78.3923445 L57.5693779,78.3923445 L57.5693779,59.4066985 Z M140.861244,192.91866 L88.1913876,217.416268 L35.5215311,192.91866 L35.5215311,110.851674 L140.861244,110.851674 L140.861244,192.91866 Z"></path>
</svg>

<svg viewBox="0 0 177 256" xmlns="http://www.w3.org/2000/svg"><path d="M150.66 59.407C150.66 26.947 122.488 0 88.191 0 53.895 0 25.722 26.947 25.722 59.407v18.985H0v136.575L88.191 256l88.192-41.033V79.005H150.66V59.407Zm-93.09 0c0-15.311 13.473-27.56 30.621-27.56 17.149 0 30.622 12.249 30.622 27.56v18.985H57.57V59.407Zm83.291 133.512-52.67 24.497-52.67-24.497v-82.067h105.34v82.067Z"/></svg>
